src/cmd/lc_goalseekdialog.svg

<svg viewBox="0 0 24 24" xmlns="http://www.w3.org/2000/svg"><path d="m19 12c-.552285 0-1 .4477-1 1s.447715 1 1 1 1-.4477 1-1-.447715-1-1-1zm0 3c-.552285 0-1 .4477-1 1s.447715 1 1 1 1-.4477 1-1-.447715-1-1-1zm0 3c-.552285 0-1 .4477-1 1s.447715 1 1 1 1-.4477 1-1-.447715-1-1-1z" fill="#e95420"/><path d="m6 4-1 1v1 .3125l4.03125 5.6875h1.21875l-4.25-6v-1h12v1l-4.25 6h1.21875l4.03125-5.6875v-1.3125l-1-1zm1 2 2 3v-2l2-1zm-3 6v1h2v-1zm3 0v1h2v-1zm4 0v1h2v-1zm2 1v.0625.9375 4.03125l-2-1.5v-2.53125-.9375-.0625h-.03125-1.21875l.25.375v3.625.03125l4 2.96875v-6.625l.25-.375h-1.21875zm2-1v1h2v-1z" fill="#232629"/></svg>

<?xml version="1.0" encoding="UTF-8" standalone="no"?>
<svg
   xmlns:dc="http://purl.org/dc/elements/1.1/"
   xmlns:cc="http://creativecommons.org/ns#"
   xmlns:rdf="http://www.w3.org/1999/02/22-rdf-syntax-ns#"
   xmlns:svg="http://www.w3.org/2000/svg"
   xmlns="http://www.w3.org/2000/svg"
   xmlns:sodipodi="http://sodipodi.sourceforge.net/DTD/sodipodi-0.dtd"
   xmlns:inkscape="http://www.inkscape.org/namespaces/inkscape"
   viewBox="0 0 24 24"
   version="1.1"
   id="svg6"
   sodipodi:docname="lc_goalseekdialog.svg"
   inkscape:version="0.92.4 (5da689c313, 2019-01-14)">
  <metadata
     id="metadata12">
    <rdf:RDF>
      <cc:Work
         rdf:about="">
        <dc:format>image/svg+xml</dc:format>
        <dc:type
           rdf:resource="http://purl.org/dc/dcmitype/StillImage" />
      </cc:Work>
    </rdf:RDF>
  </metadata>
  <defs
     id="defs10" />
  <sodipodi:namedview
     pagecolor="#ffffff"
     bordercolor="#666666"
     borderopacity="1"
     objecttolerance="10"
     gridtolerance="10"
     guidetolerance="10"
     inkscape:pageopacity="0"
     inkscape:pageshadow="2"
     inkscape:window-width="1920"
     inkscape:window-height="1011"
     id="namedview8"
     showgrid="true"
     inkscape:zoom="39.333333"
     inkscape:cx="9.0800315"
     inkscape:cy="10.935516"
     inkscape:window-x="0"
     inkscape:window-y="32"
     inkscape:window-maximized="1"
     inkscape:current-layer="svg6">
    <inkscape:grid
       type="xygrid"
       id="grid822" />
  </sodipodi:namedview>
  <path
     id="path838"
     d="m 18,12 v 1 h 2 v -1 z m -3,0 v 1 h 2 v -1 z m -2,1 V 13.0625 14 18.03125 l -2,-1.5 V 14 13.0625 13 H 10.96875 9.75 L 10,13.375 V 17 17.03125 L 14,20 V 13.375 L 14.25,13 h -1.21875 z m -2,-1 v 1 h 2 v -1 z m -4,0 v 1 h 2 v -1 z m -3,0 v 1 H 6 V 12 Z M 7,6 9,9 V 7 L 11,6 Z M 6,4 5,5 V 6 6.3125 L 9.03125,12 H 10.25 L 6,6 V 5 h 12 v 1 l -4.25,6 h 1.21875 L 19,6.3125 V 5 L 18,4 Z"
     style="fill:#232629;fill-opacity:1" />
</svg>
